X: 19149
T: Irish, The
R: hornpipe
M: 4/4
K: Aminor
|:e>d|c>dB>c A2 e>d|c>dB>c A2 c>d|e>fe>d c>de>f|g>ed>c d2 e>d|
c>dB>c A>cB>A|G>EC>E G2 e>d|c2 B>A ^G>AB>^G|A6:|
|:c>d|e2 a4 ^g>a|b2 a4 e>f|g>^fg>a g2 =f>e|d>cB>A G2 c>d|
e2 a4 ^g>a|b2 a4 e>d|c2 B>A ^G>AB>^G|A6:|

